X: 71
T:The War Camp
M:4/4
L:1/8
Q:150
S:Michael Raven (Hynde Horn)
A:Wales
Z:brian_martin12345@yahoo.com
K:Bm
Bc|d2cB ^ABcA|B2B,4B,C|DB,ECF2F2|B,4B,2:||!
dc|d2d2A2A2|d2D2D2FE|D2DEC2CD|B,DCB,F2fe|d2dec2cd|BdcB^A2FF|!
GFGEF2^A2|B2B,4fe|dfed cedc|Bcdef2FF|GFGE F2^A2|B2B,4||
